icons/gatsbyjs.svg

<svg width="24" height="24" viewBox="0 0 24 24" fill="none" xmlns="http://www.w3.org/2000/svg">
<path d="M12 4C8.59831 4 5.69035 6.1238 4.53389 9.11968L14.8803 19.4661C17.268 18.5443 19.1022 16.5094 19.7481 14H16C15.4477 14 15 13.5523 15 13C15 12.4477 15.4477 12 16 12H20.9451C21.2294 12 21.5003 12.121 21.69 12.3329C21.8797 12.5447 21.9703 12.8273 21.939 13.1099C21.4945 17.1313 18.6687 20.4305 14.9045 21.5714C14.5514 21.6784 14.1681 21.5824 13.9073 21.3215L2.67849 10.0927C2.41764 9.83186 2.32159 9.44858 2.42859 9.09554C3.6729 4.99017 7.48594 2 12 2C14.5605 2 16.8984 2.96367 18.6669 4.54655C19.0784 4.91487 19.1135 5.54707 18.7451 5.95859C18.3768 6.37012 17.7446 6.40514 17.3331 6.03682C15.9171 4.76945 14.0496 4 12 4Z" fill="black"/>
<path d="M12 22C10.7937 22 9.63733 21.7864 8.56657 21.395C5.80573 20.3858 3.61424 18.1943 2.605 15.4334C2.21359 14.3627 2 13.2063 2 12L12 22Z" fill="black"/>
</svg>

<svg
  width="24"
  height="24"
  viewBox="0 0 24 24"
  xmlns="http://www.w3.org/2000/svg"
>
  <path d="M12 4a8.004 8.004 0 0 0-7.466 5.12L14.88 19.466A8.02 8.02 0 0 0 19.748 14H16a1 1 0 1 1 0-2h4.945a1 1 0 0 1 .994 1.11 10.009 10.009 0 0 1-7.034 8.461 1 1 0 0 1-.998-.25L2.678 10.094a1 1 0 0 1-.25-.997C3.674 4.99 7.487 2 12 2c2.56 0 4.898.964 6.667 2.547a1 1 0 1 1-1.334 1.49A7.966 7.966 0 0 0 12 4z" />
  <path d="M12 22a9.981 9.981 0 0 1-3.433-.605 10.03 10.03 0 0 1-5.962-5.962A9.98 9.98 0 0 1 2 12l10 10z" />
</svg>
